packages/calcite-ui-icons/icons/wind-16.svg

<?xml version="1.0" encoding="UTF-8"?><svg id="icons" xmlns="http://www.w3.org/2000/svg" viewBox="0 0 16 16"><defs><style>.cls-1{fill:none;}</style></defs><path d="M7,5.94958v.00037l-.5.05005H1v-1h5.5c.82715,0,1.4-.67285,1.4-1.5s-.57285-1.5-1.4-1.5-1.5.67285-1.5,1.5c0,.17615.03607.34283.0921.5h-1.04169c-.03284-.16162-.05042-.32874-.05042-.5,0-1.38074,1.11926-2.5,2.5-2.5s2.4,1.11926,2.4,2.5c0,1.20941-.75889,2.2179-1.9,2.44958ZM11.9,11.05042v-.00037l-.5-.05005H1v1h10.4c.82715,0,1.5.67285,1.5,1.5s-.67285,1.5-1.5,1.5-1.4-.67285-1.4-1.5c0-.17615.03607-.34283.0921-.5h-1.04169c-.03284.16162-.05042.32874-.05042.5,0,1.38074,1.01926,2.5,2.4,2.5s2.5-1.11926,2.5-2.5c0-1.20941-.85889-2.2179-2-2.44958ZM12.9,3c-1.65686,0-2.9,1.34314-2.9,3h1c0-1.10254.79746-2,1.9-2s2,.89746,2,2-.89746,2-2,2H2v1h10.9c1.65686,0,3-1.34314,3-3s-1.34314-3-3-3Z"/><rect class="cls-1" width="16" height="16"/></svg>

<svg xmlns="http://www.w3.org/2000/svg" viewBox="0 0 16 16"><path d="M7 5.95L6.5 6H1V5h5.5c.827 0 1.4-.673 1.4-1.5S7.327 2 6.5 2 5 2.673 5 3.5c0 .176.036.343.092.5H4.05A2.5 2.5 0 0 1 6.5 1c1.38 0 2.4 1.12 2.4 2.5 0 1.21-.759 2.218-1.9 2.45zm4.9 5.1l-.5-.05H1v1h10.4c.827 0 1.5.673 1.5 1.5s-.673 1.5-1.5 1.5-1.4-.673-1.4-1.5c0-.176.036-.343.092-.5H9.05c-.032.162-.05.329-.05.5 0 1.38 1.02 2.5 2.4 2.5a2.5 2.5 0 0 0 .5-4.95zm1-8.05C11.243 3 10 4.343 10 6h1c0-1.103.797-2 1.9-2s2 .897 2 2-.897 2-2 2H2v1h10.9a3 3 0 1 0 0-6z"/><path fill="none" d="M0 0h16v16H0z"/></svg>
